;FLAVOR:Marlin
;TIME:5058
;Filament used: 4.24411m
;Layer height: 0.2
;MINX:123.957
;MINY:123.949
;MINZ:0.24
;MAXX:176.006
;MAXY:176
;MAXZ:29.84
;Generated with Cura_SteamEngine 4.1.0
M140 S60
M105
M190 S60
M104 S200
M105
M109 S200
M82 ;absolute extrusion mode
; -- START GCODE --
G21                     ;set units to millimetres
G90                     ;set to absolute positioning
M106 S0                 ;set fan speed to zero (turned off)
G28                     ;home all axis
G92 E0                  ;zero the extruded length
G1 Z1 F1000             ;move up slightly
G1 Y60.0 Z0 E9.0 F1000.0;intro line
G1 Y100.0 E21.5 F1000.0 ;continue line
G92 E0                  ;zero the extruded length again
; -- end of START GCODE --
G92 E0
G92 E0
G1 F2700 E-5
;LAYER_COUNT:145
;LAYER:-5
M107
G0 F7200 X131.279 Y132.171 Z0.24
;TYPE:SUPPORT-INTERFACE
G1 F2700 E0
G1 F900 X133.105 Y130.429 E0.20145
G1 X133.542 Y130.061 E0.24705
G1 X135.483 Y128.608 E0.4406
G1 X135.828 Y128.38 E0.47361
G1 X135.966 Y128.295 E0.48654
G1 X138.254 Y126.972 E0.69752
G1 X138.744 Y126.726 E0.74128
G1 X140.962 Y125.771 E0.93405
G1 X141.385 Y125.618 E0.96995
G1 X141.516 Y125.576 E0.98094
G1 X143.922 Y124.872 E1.18105
G1 X144.471 Y124.748 E1.22597
G1 X146.556 Y124.388 E1.39487
G1 X146.749 Y124.36 E1.41044
G1 X147.496 Y124.268 E1.47052
G1 X147.856 Y124.239 E1.49935
G1 X149.506 Y124.156 E1.63122
G1 X149.796 Y124.15 E1.65438
G1 X150.45 Y124.163 E1.70659
G1 X153.049 Y124.331 E1.91449
G1 X153.657 Y124.412 E1.96345
G1 X155.999 Y124.86 E2.15379
G1 X156.575 Y125.009 E2.20128
G1 X158.969 Y125.763 E2.40163
G1 X159.482 Y125.962 E2.44556
G1 X161.77 Y126.995 E2.64595
G1 X162.282 Y127.269 E2.6923
G1 X164.415 Y128.564 E2.89149
G1 X164.884 Y128.893 E2.93722
G1 X166.693 Y130.294 E3.11986
G1 X166.843 Y130.417 E3.13535
G1 X167.136 Y130.673 E3.16641
G1 X167.265 Y130.793 E3.18047
G1 X169.02 Y132.528 E3.37746
G1 X169.417 Y132.975 E3.42519
G1 X170.968 Y134.919 E3.6237
G1 X171.28 Y135.364 E3.66709
G1 X172.473 Y137.28 E3.84725
G1 X172.639 Y137.565 E3.87358
G1 X172.851 Y137.973 E3.91028
G1 X173.911 Y140.247 E4.11056
G1 X174.114 Y140.77 E4.15534
G1 X174.86 Y143.021 E4.34464
G1 X175.001 Y143.555 E4.38872
G1 X175.497 Y145.944 E4.58349
G1 X175.576 Y146.491 E4.62761
G1 X175.798 Y149.055 E4.83304
G1 X175.808 Y149.664 E4.88166
G1 X175.703 Y152.283 E5.09089
G1 X175.649 Y152.806 E5.13286
G1 X175.251 Y155.384 E5.34108
G1 X175.117 Y155.981 E5.38992
G1 X174.496 Y158.179 E5.57225
G1 X174.305 Y158.721 E5.61812
G1 X173.318 Y161.09 E5.82298
G1 X173.086 Y161.562 E5.86496
G1 X171.877 Y163.717 E6.06221
G1 X171.573 Y164.187 E6.10689
G1 X170.059 Y166.271 E6.31251
G1 X169.667 Y166.737 E6.36112
G1 X168.092 Y168.426 E6.54546
G1 X167.974 Y168.545 E6.55884
G1 X167.58 Y168.917 E6.60209
G1 X165.718 Y170.49 E6.79666
G1 X165.281 Y170.813 E6.84004
G1 X163.233 Y172.182 E7.03668
G1 X162.712 Y172.481 E7.08463
G1 X160.407 Y173.632 E7.29029
G1 X159.89 Y173.851 E7.33511
G1 X157.525 Y174.708 E7.53591
G1 X156.968 Y174.868 E7.58217
G1 X154.59 Y175.422 E7.77708
G1 X154.031 Y175.516 E7.82232
G1 X151.513 Y175.79 E8.02451
G1 X151.115 Y175.811 E8.05632
G1 X150.932 Y175.815 E8.07093
G1 X148.586 Y175.799 E8.25821
G1 X148.42 Y175.792 E8.27147
G1 X147.888 Y175.754 E8.31404
G1 X145.604 Y175.463 E8.49784
G1 X145.429 Y175.435 E8.51198
G1 X144.968 Y175.345 E8.54948
G1 X144.821 Y175.31 E8.56154
G1 X142.855 Y174.787 E8.72393
G1 X142.573 Y174.721 E8.74705
G1 X141.944 Y174.543 E8.79923
G1 X141.77 Y174.487 E8.81382
G1 X139.589 Y173.658 E9.00007
G1 X139.037 Y173.405 E9.04854
G1 X136.846 Y172.247 E9.24636
G1 X136.39 Y171.97 E9.28895
G1 X134.332 Y170.554 E9.48836
G1 X133.896 Y170.212 E9.53259
G1 X132.012 Y168.56 E9.73261
G1 X131.609 Y168.158 E9.77805
G1 X129.936 Y166.303 E9.97745
G1 X129.558 Y165.821 E10.02634
G1 X128.123 Y163.768 E10.22629
G1 X127.842 Y163.308 E10.26931
G1 X126.669 Y161.142 E10.46594
G1 X126.435 Y160.635 E10.51051
G1 X125.485 Y158.241 E10.71611
G1 X125.309 Y157.691 E10.76221
G1 X124.705 Y155.391 E10.95203
G1 X124.592 Y154.805 E10.99967
G1 X124.255 Y152.403 E11.19328
G1 X124.211 Y151.834 E11.23884
G1 X124.156 Y149.126 E11.45505
G1 X124.171 Y148.724 E11.48716
G1 X124.183 Y148.554 E11.50076
G1 X124.415 Y146.228 E11.68735
G1 X124.501 Y145.699 E11.73014
G1 X124.999 Y143.394 E11.91838
G1 X125.046 Y143.205 E11.93392
G1 X125.198 Y142.677 E11.97778
G1 X126.035 Y140.274 E12.1809
G1 X126.259 Y139.745 E12.22676
G1 X127.32 Y137.567 E12.42015
G1 X127.545 Y137.166 E12.45685
G1 X127.618 Y137.047 E12.468
G1 X128.879 Y135.086 E12.6541
G1 X128.987 Y134.93 E12.66925
G1 X129.31 Y134.495 E12.7125
G1 X130.89 Y132.585 E12.91037
G1 X131.279 Y132.171 E12.95571
G0 F7200 X144.37 Y144.129
G1 F900 X143.814 Y144.723 E13.02066
G1 X143.485 Y145.135 E13.06275
G1 X143.037 Y145.792 E13.12622
G1 X142.858 Y146.103 E13.15487
G1 X142.519 Y146.816 E13.21789
G1 X142.331 Y147.304 E13.25963
G1 X142.105 Y148.049 E13.32178
G1 X142.014 Y148.456 E13.35507
G1 X141.9 Y149.264 E13.42021
G1 X141.873 Y149.697 E13.45484
G1 X141.883 Y150.486 E13.51782
G1 X141.923 Y150.927 E13.55317
G1 X142.054 Y151.709 E13.61646
G1 X142.169 Y152.176 E13.65485
G1 X142.428 Y152.955 E13.72038
G1 X142.586 Y153.328 E13.75272
G1 X142.927 Y153.996 E13.81259
G1 X143.195 Y154.438 E13.85385
G1 X143.69 Y155.122 E13.92125
G1 X143.939 Y155.413 E13.95182
G1 X144.483 Y155.962 E14.01351
G1 X144.832 Y156.265 E14.05041
G1 X145.46 Y156.732 E14.11288
G1 X145.851 Y156.979 E14.14979
G1 X146.565 Y157.357 E14.21428
G1 X146.93 Y157.515 E14.24603
G1 X147.694 Y157.777 E14.3105
G1 X148.244 Y157.92 E14.35587
G1 X149.009 Y158.058 E14.41792
G1 X149.269 Y158.085 E14.43878
G1 X150.067 Y158.107 E14.50251
G1 X150.661 Y158.078 E14.54998
G1 X151.472 Y157.973 E14.61526
G1 X151.873 Y157.888 E14.64798
G1 X152.621 Y157.672 E14.71013
G1 X153.035 Y157.517 E14.74542
G1 X153.755 Y157.184 E14.80874
G1 X154.138 Y156.97 E14.84376
G1 X154.812 Y156.52 E14.90845
G1 X155.148 Y156.256 E14.94256
G1 X155.729 Y155.725 E15.00539
G1 X156.068 Y155.363 E15.04498
G1 X156.573 Y154.734 E15.10937
G1 X156.804 Y154.395 E15.14211
G1 X157.189 Y153.729 E15.20352
G1 X157.39 Y153.313 E15.2404
G1 X157.687 Y152.549 E15.30583
G1 X157.83 Y152.075 E15.34535
G1 X158.002 Y151.289 E15.40958
G1 X158.045 Y150.978 E15.43464
G1 X158.094 Y150.203 E15.49663
G1 X158.088 Y149.659 E15.54006
G1 X158.02 Y148.883 E15.60224
G1 X157.956 Y148.49 E15.63402
G1 X157.746 Y147.65 E15.70314
G1 X157.579 Y147.16 E15.74446
G1 X157.295 Y146.486 E15.80284
G1 X157.097 Y146.094 E15.8379
G1 X156.68 Y145.409 E15.90191
G1 X156.433 Y145.067 E15.93559
G1 X155.896 Y144.432 E16.00197
G1 X155.605 Y144.141 E16.03482
G1 X155.047 Y143.655 E16.09389
G1 X154.639 Y143.349 E16.1346
G1 X153.92 Y142.894 E16.20252
G1 X153.569 Y142.711 E16.23412
G1 X152.838 Y142.398 E16.2976
G1 X152.418 Y142.255 E16.33301
G1 X151.646 Y142.058 E16.39661
G1 X151.129 Y141.967 E16.43851
G1 X150.375 Y141.89 E16.49901
G1 X150.065 Y141.881 E16.52377
G1 X149.241 Y141.922 E16.58963
G1 X148.645 Y142 E16.63761
G1 X147.889 Y142.157 E16.69924
G1 X147.542 Y142.257 E16.72807
G1 X146.792 Y142.535 E16.79192
G1 X146.355 Y142.737 E16.83035
G1 X145.651 Y143.132 E16.89479
G1 X145.28 Y143.379 E16.93036
G1 X144.658 Y143.865 E16.99337
G1 X144.37 Y144.129 E17.02456
G0 F7200 X144 Y144.525
G1 F900 X144 Y124.854 E18.59478
G0 F7200 X145.6 Y124.553
G1 F900 X145.6 Y143.166 E20.08055
G0 F7200 X147.2 Y142.384
G1 F900 X147.2 Y124.304 E21.52378
G0 F7200 X148.8 Y124.191
G1 F900 X148.8 Y141.98 E22.94377
G0 F7200 X150.4 Y141.892
G1 F900 X150.4 Y124.163 E24.35898
G0 F7200 X152 Y124.264
G1 F900 X152 Y142.148 E25.78656
G0 F7200 X153.6 Y142.727
G1 F900 X153.6 Y124.405 E27.2491
G0 F7200 X155.2 Y124.708
G1 F900 X155.2 Y143.788 E28.77215
G0 F7200 X156.8 Y145.606
G1 F900 X156.8 Y125.08 E30.41062
G0 F7200 X158.4 Y125.584
G1 F900 X158.4 Y174.391 E34.30661
G0 F7200 X156.8 Y174.908
G1 F900 X156.8 Y154.4 E35.94364
G0 F7200 X155.2 Y156.208
G1 F900 X155.2 Y175.28 E37.46605
G0 F7200 X153.6 Y175.563
G1 F900 X153.6 Y157.255 E38.92748
G0 F7200 X152 Y157.851
G1 F900 X152 Y175.738 E40.35529
G0 F7200 X150.4 Y175.811
G1 F900 X150.4 Y158.09 E41.76986
G0 F7200 X148.8 Y158.021
G1 F900 X148.8 Y175.8 E43.18906
G0 F7200 X147.2 Y175.666
G1 F900 X147.2 Y157.608 E44.63052
G0 F7200 X145.6 Y156.821
G1 F900 X145.6 Y175.462 E46.11853
G0 F7200 X144 Y175.091
G1 F900 X144 Y155.475 E47.68436
G0 F7200 X142.4 Y152.871
G1 F900 X142.4 Y174.672 E49.42461
G0 F7200 X140.8 Y174.118
G1 F900 X140.8 Y125.84 E53.27837
G0 F7200 X142.4 Y125.317
G1 F900 X142.4 Y147.125 E55.01918
G0 F7200 X126.4 Y139.455
G1 F900 X126.4 Y160.546 E56.70276
G0 F7200 X128 Y163.566
G1 F900 X128 Y136.452 E58.86711
G0 F7200 X129.6 Y134.144
G1 F900 X129.6 Y165.874 E61.39994
G0 F7200 X131.2 Y167.704
G1 F900 X131.2 Y132.255 E64.22963
G0 F7200 X132.8 Y130.719
G1 F900 X132.8 Y169.25 E67.30534
G0 F7200 X134.4 Y170.6
G1 F900 X134.4 Y129.418 E70.59267
G0 F7200 X136 Y128.275
G1 F900 X136 Y171.701 E74.05912
G0 F7200 X137.6 Y172.645
G1 F900 X137.6 Y127.35 E77.67476
G0 F7200 X139.2 Y126.529
G1 F900 X139.2 Y173.479 E81.42251
G0 F7200 X160 Y173.805
G1 F900 X160 Y126.196 E85.22287
G0 F7200 X161.6 Y126.919
G1 F900 X161.6 Y173.037 E88.90421
G0 F7200 X163.2 Y172.201
G1 F900 X163.2 Y127.827 E92.44633
G0 F7200 X164.8 Y128.835
G1 F900 X164.8 Y171.135 E95.8229
G0 F7200 X166.4 Y169.914
G1 F900 X166.4 Y130.068 E99.00358
G0 F7200 X168 Y131.52
G1 F900 X168 Y168.519 E101.957
G0 F7200 X169.6 Y166.809
G1 F900 X169.6 Y133.205 E104.63942
G0 F7200 X171.2 Y135.25
G1 F900 X171.2 Y164.701 E106.99032
G0 F7200 X172.8 Y162.072
G1 F900 X172.8 Y137.875 E108.92183
G0 F7200 X174.4 Y141.633
G1 F900 X174.4 Y158.452 E110.2644
G0 F7200 X149.076 Y157.603
G0 X124.8 Y155.752
G1 F900 X124.8 Y144.315 E111.17735
G0 F7200 X124.998 Y143.393
;TIME_ELAPSED:99.257655
;LAYER:-4
M140 S60
G0 X124.998 Y143.393 Z0.54
;TYPE:SUPPORT
G1 F900 X124.749 Y144.548 E111.29524
G1 X155.427 Y175.226 E115.62424
G1 X154.589 Y175.421 E115.71009
G0 F7200 X154.262 Y175.475
G1 F900 X124.498 Y145.711 E119.91011
G1 X124.414 Y146.227 E119.96228
G1 X124.34 Y146.967 E120.03648
G1 X152.999 Y175.626 E124.08058
G1 X151.724 Y175.766 E124.20856
G1 X124.212 Y148.254 E128.0908
G0 F7200 X124.17 Y148.722
G1 F900 X124.165 Y149.621 E128.18051
G1 X150.354 Y175.81 E131.87606
G1 X148.93 Y175.8 E132.01815
G1 X124.194 Y151.064 E135.50866
G1 X124.211 Y151.833 E135.58541
G1 X124.276 Y152.561 E135.65834
G1 X147.407 Y175.691 E138.92231
G1 X145.787 Y175.485 E139.08525
G1 X124.508 Y154.206 E142.08795
G1 X124.592 Y154.804 E142.1482
G1 X124.704 Y155.39 E142.20773
G1 X124.856 Y155.969 E142.26746
G1 X143.969 Y175.082 E144.96452
G1 X142.854 Y174.786 E145.07962
G1 X142.042 Y174.569 E145.16349
G1 X125.377 Y157.904 E147.5151
G0 F7200 X125.485 Y158.239
G1 F900 X126.264 Y160.205 E147.72611
G1 X139.794 Y173.735 E149.63534
G1 X139.036 Y173.403 E149.71791
G1 X136.941 Y172.296 E149.95434
G1 X127.711 Y163.066 E151.25679
G0 F7200 X127.842 Y163.307
G1 F900 X128.123 Y163.767 E151.31057
G1 X129.558 Y165.82 E151.5605
G1 X129.935 Y166.302 E151.62156
G1 X131.608 Y168.157 E151.87081
G1 X132.011 Y168.559 E151.92761
G1 X133.895 Y170.211 E152.17763
G1 X134.331 Y170.552 E152.23286
G1 X136.39 Y171.969 E152.48226
G1 X136.941 Y172.296 E152.54619
G0 F7200 X144.483 Y155.96
G1 F900 X143.689 Y155.12 E152.66152
G1 X143.381 Y154.695 E152.71389
G1 X126.97 Y138.283 E155.02973
G1 X127.32 Y137.566 E155.10935
G0 F7200 X127.443 Y137.343
G1 F900 X142.134 Y152.033 E157.18233
G0 F7200 X142.053 Y151.708
G1 F900 X141.923 Y150.926 E157.26143
G1 X141.881 Y150.366 E157.31747
G1 X127.987 Y136.472 E159.27806
G1 X128.539 Y135.611 E159.38011
G1 X141.936 Y149.007 E161.2705
G1 X142.013 Y148.455 E161.32611
G1 X142.171 Y147.828 E161.39063
G1 X129.108 Y134.765 E163.23396
G1 X129.735 Y133.978 E163.33436
G1 X142.536 Y146.779 E165.14072
G1 X143.01 Y145.838 E165.24586
G1 X130.376 Y133.204 E167.02865
G1 X130.889 Y132.583 E167.10902
G0 F7200 X131.025 Y132.439
G1 F900 X143.59 Y145.004 E168.88208
G0 F7200 X143.814 Y144.722
G1 F900 X144.253 Y144.253 E168.94618
G1 X131.735 Y131.735 E170.7126
G1 X132.459 Y131.045 E170.8124
G1 X145.005 Y143.591 E172.58277
G0 F7200 X145.279 Y143.378
G1 F900 X145.848 Y143.02 E172.64985
G1 X133.187 Y130.359 E174.43646
G1 X133.977 Y129.735 E174.53691
G1 X146.781 Y142.539 E176.34369
G0 F7200 X146.791 Y142.535
G1 F900 X147.829 Y142.173 E176.45338
G1 X134.786 Y129.129 E178.29396
G1 X135.482 Y128.607 E178.38077
G0 F7200 X135.601 Y128.53
G1 F900 X149.021 Y141.95 E180.27447
G0 F7200 X149.24 Y141.921
G1 F900 X150.375 Y141.89 E180.38777
G1 X136.482 Y127.996 E182.34829
G1 X137.378 Y127.478 E182.45156
G1 X152.064 Y142.164 E184.52391
G1 X152.837 Y142.397 E184.60447
G1 X153.919 Y142.894 E184.72328
G1 X154.734 Y143.421 E184.82012
G1 X138.275 Y126.961 E187.14273
G1 X138.743 Y126.725 E187.19503
G1 X139.239 Y126.512 E187.24889
G1 X173.465 Y160.737 E192.07848
G1 X173.88 Y159.738 E192.18642
G1 X140.228 Y126.086 E196.93508
G1 X140.961 Y125.77 E197.01473
G0 F7200 X141.23 Y125.674
G1 F900 X174.296 Y158.739 E201.68062
G0 F7200 X174.303 Y158.72
G1 F900 X174.494 Y158.179 E201.73787
G1 X174.639 Y157.669 E201.79078
G1 X142.313 Y125.343 E206.35232
G1 X143.407 Y125.022 E206.46609
G1 X174.95 Y156.566 E210.91721
G1 X175.116 Y155.98 E210.97799
G1 X175.238 Y155.439 E211.03332
G1 X144.536 Y124.737 E215.36571
G1 X145.741 Y124.528 E215.48774
G1 X175.431 Y154.217 E219.67725
G1 X175.619 Y152.992 E219.80091
G1 X146.961 Y124.334 E223.84486
G1 X147.495 Y124.268 E223.89855
G1 X148.261 Y124.219 E223.97514
G1 X175.726 Y151.685 E227.85082
G1 X175.781 Y150.325 E227.98663
G1 X149.61 Y124.154 E231.67964
G1 X150.448 Y124.163 E231.76326
G1 X151.074 Y124.204 E231.82586
G1 X175.785 Y148.915 E235.31285
G1 X175.651 Y147.367 E235.46788
G1 X152.585 Y124.301 E238.72275
G1 X153.656 Y124.411 E238.83017
G1 X154.217 Y124.519 E238.88718
G1 X175.458 Y145.76 E241.88451
G1 X175.088 Y143.975 E242.06641
G1 X155.967 Y124.854 E244.76459
G1 X156.573 Y125.008 E244.82697
G1 X157.977 Y125.45 E244.97384
G1 X174.518 Y141.991 E247.30796
G1 X174.113 Y140.77 E247.43632
G1 X173.91 Y140.246 E247.49239
G1 X173.668 Y139.727 E247.54953
G1 X160.25 Y126.309 E249.44295
G1 X161.769 Y126.994 E249.60922
G1 X162.281 Y127.269 E249.66721
G1 X163.155 Y127.8 E249.76925
G1 X172.204 Y136.849 E251.04616
G0 F7200 X171.279 Y135.364
G1 F900 X170.967 Y134.918 E251.10047
G1 X169.416 Y132.974 E251.34862
G1 X169.019 Y132.528 E251.40819
G1 X167.135 Y130.672 E251.67208
G1 X166.691 Y130.294 E251.73026
G1 X164.883 Y128.892 E251.95855
G1 X164.414 Y128.564 E252.01566
G1 X163.155 Y127.8 E252.1626
G0 F7200 X155.046 Y143.655
G1 F900 X155.895 Y144.431 E252.27737
G1 X156.564 Y145.251 E252.38296
G1 X173.009 Y161.696 E254.70353
G1 X172.501 Y162.602 E254.80717
G1 X157.809 Y147.91 E256.88037
G1 X158.019 Y148.883 E256.97969
G1 X158.081 Y149.596 E257.05111
G1 X171.993 Y163.508 E259.01424
G1 X171.572 Y164.187 E259.09396
G0 F7200 X171.44 Y164.369
G1 F900 X158.044 Y150.973 E260.98428
G0 F7200 X158 Y151.289
G1 F900 X157.806 Y152.149 E261.07224
G1 X170.845 Y165.188 E262.91219
G1 X170.25 Y166.007 E263.0132
G1 X157.435 Y153.192 E264.82153
G0 F7200 X157.389 Y153.313
G1 F900 X156.956 Y154.128 E264.91362
G1 X169.617 Y166.789 E266.70022
G1 X168.935 Y167.521 E266.80005
G1 X156.383 Y154.968 E268.57134
G1 X155.726 Y155.726 E268.67143
G1 X168.253 Y168.253 E270.43913
G1 X167.58 Y168.916 E270.53339
G0 F7200 X167.537 Y168.951
G1 F900 X154.975 Y156.39 E272.30596
G0 F7200 X154.811 Y156.518
G1 F900 X154.14 Y156.968 E272.38657
G1 X166.77 Y169.598 E274.1688
G1 X166.003 Y170.246 E274.26899
G1 X153.198 Y157.441 E276.07591
G0 F7200 X153.034 Y157.516
G1 F900 X152.15 Y157.807 E276.16878
G1 X165.205 Y170.862 E278.01098
G1 X164.357 Y171.428 E278.11271
G1 X150.966 Y158.037 E280.00232
G0 F7200 X150.661 Y158.077
G1 F900 X149.608 Y158.094 E280.1074
G1 X163.509 Y171.995 E282.06899
G1 X162.712 Y172.48 E282.16208
G0 F7200 X162.623 Y172.523
G1 F900 X147.94 Y157.84 E284.23401
G0 F7200 X147.694 Y157.776
G1 F900 X146.564 Y157.356 E284.3543
G1 X145.851 Y156.978 E284.43482
G1 X145.295 Y156.609 E284.5014
G1 X161.681 Y172.995 E286.81364
G1 X160.738 Y173.466 E286.91882
G1 X126.507 Y139.234 E291.74926
G1 X126.258 Y139.744 E291.80588
